symbolic/24x24/actions/document-edit-sign.svg

<svg xmlns="http://www.w3.org/2000/svg" width="24" height="24"><defs><style id="current-color-scheme" type="text/css"></style></defs><path style="fill:currentColor;color:#323a41" d="M3 1S2 1 2 2v12c0 1 1 1 1 1h4v-2H4V3.004h8V7.99h2V2c0-1-1-1-1-1H3zm9 8-4 4v2h2l4-4-2-2z" transform="translate(4 4)"/></svg>

<svg xmlns="http://www.w3.org/2000/svg" width="24" height="24" viewBox="0 0 24 24">
 <defs>
  <style id="current-color-scheme" type="text/css">
   .ColorScheme-Text { color:#323a41; } .ColorScheme-Highlight { color:#4285f4; } .ColorScheme-NeutralText { color:#ff9800; } .ColorScheme-PositiveText { color:#4caf50; } .ColorScheme-NegativeText { color:#f44336; }
  </style>
 </defs>
 <path style="fill:currentColor" class="ColorScheme-Text" d="M 3 1 C 3 1 2 1 2 2 L 2 14 C 2 15 3 15 3 15 L 7 15 L 7 13 L 4 13 L 4 3.0039062 L 12 3.0039062 L 12 7.9902344 L 14 7.9902344 L 14 2 C 14 1 13 1 13 1 L 3 1 z M 12 9 L 8 13 L 8 15 L 10 15 L 14 11 L 12 9 z" transform="translate(4 4)"/>
</svg>
